!!!!SEGMENT: pl-sa--560-a-ix-40_stolpe-alojzy--polonez.krn
!!!cenid: 18xx:360
!!!COM: Stolpe, Alojzy
!!!COM-rismID: pe41021477
!!!CDT: 1784-1824
!!!CNT: Polish
!!!OTL: Polonez
!!!PDT:
!!!AGN: Secular; Polonaise
!!!SMS-siglum: PL-SA
!!!SMS-shelfmark: 560/A IX 40
!!!SMS-shelfwork: W
!!!SMS-variant:
!!!SMS-altvar:
!!!NIFC-rismSourceID: 1001065430
!!!NIFC-islandoraID:
!!!URL-pdf-islandora:
!!!URL-scan: https://bc.bdsandomierz.pl/dlibra/publication/1316/edition/1284/content @EN{Scan in the Sandomierz Diocese Digital Library} @PL{Skany w portalu Cyfrowa Biblioteka Diecezjalna w Sandomierzu}
!!!ONB-nifc:
!!!AIN: 1 empty
!!!key:
**kern	**kern	**dynam
*part1	*part1	*part1
*staff2	*staff1	*
*Iempty	*Ipiano	*
*	*I"Piano	*
*	*I'Pno.	*
*clefF4	*clefG2	*
*k[b-]	*k[b-]	*
*F:	*F:	*
*M3/4	*M3/4	*
*>[A,B,B,C,C,B,B,C,C,D,D,E,E,D,D,E,E]	*>[A,B,B,C,C,B,B,C,C,D,D,E,E,D,D,E,E]	*
=1	=1	=1
*>A	*>A	*
*2\right	*	*
!	!LO:SIC:o=Polonez&colon;:v:t='Polonez&colon;' znajduje się po lewej stronie systemu	!
!	!LO:TX:b:t=P:problem=w całym źródle kreski taktowe nie przechodzą przez cały system	!
32qqC/LLL	32qqc/LLL	f
32qqD/	32qqd/	.
32qqE/JJJ	32qqe/JJJ	.
8.F\L	8.f/L	.
16C\Jk	16c/Jk	.
32qqD/LLL	32qqd/LLL	.
32qqE/	32qqe/	.
32qqF/	32qqf/	.
32qqG/JJJ	32qqg/JJJ	.
8.A\L	8.a/L	.
16F\Jk	16f/Jk	.
32qqG/LLL	32qqg/LLL	.
32qqA/	32qqa/	.
32qqB-/JJJ	32qqb-/JJJ	.
8.c\L	8.cc/L	.
16A\Jk	16a/Jk	.
=2	=2	=2
32qqB-/LLL	32qqb-/LLL	.
32qqc/	32qqcc/	.
32qqd/	32qqdd/	.
32qqe/JJJ	32qqee/JJJ	.
8f\L	8ff'>\L	.
*8va	*	*
8c\	8cc'>\	.
8f\	8ff'>\	.
8a\J	8aa'>\J	.
4cc\	4ccc\	.
*X8va	*	*
=3	=3	=3
32qqGG/LLL	32qqG/LLL	.
32qqAA/	32qqA/	.
32qqBBn/JJJ	32qqBn/JJJ	.
8.C/L	8.c/L	.
16GG/Jk	16G/Jk	.
32qqAA/LLL	32qqA/LLL	.
32qqBB/	32qqB/	.
32qqC/	32qqc/	.
32qqD/JJJ	32qqd/JJJ	.
8.E/L	8.e/L	.
16C/Jk	16c/Jk	.
32qqD/LLL	32qqd/LLL	.
32qqE/	32qqe/	.
32qqF/JJJ	32qqf/JJJ	.
8.G/L	8.g/L	.
16E/Jk	16e/Jk	.
=4	=4	=4
32qqF/LLL	32qqf/LLL	.
32qqG/	32qqg/	.
32qqA/	32qqa/	.
32qqB-/JJJ	32qqb-/JJJ	.
8c\L	8cc'>\L	.
8G 8GG'>\	8g'>\	.
8c 8C'>\	8cc'>\	.
8eJ 8E'>\	8ee'>\J	.
4g 4G\	4gg\	.
!LO:TX:a:t=[segno]	!LO:TX:a:t=[segno]	!
=5||	=5||	=5||
*>B	*>B	*
*clefG2	*	*
!	!LO:TX:b:i:t=dolce	!
!	!	!LO:DY:rj
8c'</L	8bb-T>\	p
!	!	!LO:DY:b=2
8eeJ 8b-'</	4ggg^>\	sf
*rep	*	*
!LO:TX:a:i:t=ſtaccato	!	!
8c'</L	.	.
8eeJ 8b-'</	16.fff\LL	.
.	32eee\JJk	.
*Xrep	*	*
*rep	*	*
8c'</L	16.ddd\LL	.
.	32ccc\K	.
8eeJ 8b-'</	16.bbn\	.
.	32ccc\JJk	.
*Xrep	*	*
!!LO:LB:g=original
=6	=6	=6
8c'</L	16.aaa\LL	.
.	32eee\K	.
8ffJ 8a'</	16.fff\	.
.	32ddd\JJk	.
*rep	*	*
8c'</L	16.ccc\LL	.
.	32ddd\K	.
8ffJ 8a'</	16.ccc\	.
.	32bbn\JJk	.
*Xrep	*	*
*rep	*	*
8c'</L	4ccc\	.
8ffJ 8a'</	.	.
*Xrep	*	*
=7	=7	=7
!LO:TX:a:t=P:problem=mixed beam	!	!
8c'</L	16.ccc\LL	.
.	32ddd\K	.
8eeJ 8b-'>\	16.ccc\	f
.	32bbn\JJk	.
*rep	*	*
!LO:TX:a:t=P:problem=mixed beam	!	!
8c'</L	16.ccc\LL	.
.	32eee\K	.
8eeJ 8b-'>\	16.ggg\	.
.	32eee\JJk	.
*Xrep	*	*
*rep	*	*
!LO:TX:a:t=P:problem=mixed beam	!	!
8c'</L	16.bbb-\LL	.
.	32ggg\K	.
8eeJ 8b-'>\	16.eee\	.
.	32ccc\JJk	.
*Xrep	*	*
=8	=8	=8
!LO:TX:a:t=P:problem=mixed beam	!	!
8c'</L	16.aaa\LL	.
.	32fff\K	.
8ffJ 8a'>\	16.eee\	.
.	32ddd\JJk	.
*rep	*	*
!LO:TX:a:t=P:problem=mixed beam	!	!
8c'</L	16.ccc\LL	.
.	32ddd\K	.
8ffJ 8a'>\	16.ccc\	.
.	32bbn\JJk	.
*Xrep	*	*
*rep	*	*
!LO:TX:a:t=P:problem=mixed beam	!	!
8c'</L	4ccc\	.
8ffJ 8a'>\	.	.
*Xrep	*	*
=9	=9	=9
8A'</L	8cccss\	.
8ccJ 8f'</	4cccc\	.
*rep	*	*
8A'</L	.	.
!	!	!LO:DY:rj
8ccJ 8f'</	(>16bbb-\LL	sf
.	16aaa\JJ	.
*Xrep	*	*
8A'</L	16ggg\LL	.
.	16fff\	.
8cc#XJ 8f'</	16eee\	.
.	16eee-X\JJ)	.
=10	=10	=10
8B-'</L	16ccc#X\LL	.
.	16ddd\	.
8ddJ 8f'</	16eeen\	.
!	!LO:TX:a:t=t:problem=takie oznaczenie trylu	!
.	[>16dddT>\JJ	.
*rep	*	*
8B-'</L	16.ddd\LL]	.
.	32eee\K	.
8ddJ 8f'</	16.fff\	.
.	32eee\JJk	.
*Xrep	*	*
*rep	*	*
8B-'</L	16ggg^>\LL	.
.	32rff	.
.	32fff\K	.
8ddJ 8f'</	16.ddd\	.
.	32bb-\JJk	.
*Xrep	*	*
!!LO:LB:g=original
=11	=11	=11
8c/L	16.aa\LL	.
.	32ddd\K	.
8ccJ 8a 8f/	16.ccc\	.
.	32bbn\JJk	.
*rep	*	*
8c/L	8ccc^>\L	.
8ccJ 8a 8f/	16aa\L	.
.	16ff\JJ	.
*Xrep	*	*
8c'</L	16ee\LL	.
!	!LO:SIC:s=16bb-:v	!
.	16bb\	.
8ccJ 8b- 8g'</	16gg\	.
.	16ee\JJ	.
=12	=12	=12
8aL 8f'</	16ff\LL	.
.	16cc\	.
8b-J 8g'</	16ee\	.
.	16cc\JJ	.
*rep	*	*
8aL 8f'</	16ff\LL	.
.	16cc\	.
8b-J 8g'</	16ee\	.
.	16cc\JJ	.
*Xrep	*	*
8a 8f'</	8ff\	.
8r	8r	.
=13:|!|:	=13:|!|:	=13:|!|:
*>C	*>C	*
.	16qqff#X/	.
16c/LL	8gg\	.
16g/	.	.
16e/	4gg^>\	.
16g/JJ	.	.
*rep	*	*
16c/LL	.	.
16g/	.	.
16e/	16ee\LL	.
16g/JJ	16cc\JJ	.
*Xrep	*	*
16d/LL	16bn\LL	.
16g/	16ffn\	.
16f/	16dd\	.
16g/JJ	16b\JJ	.
=14	=14	=14
16c/LL	16.cc\LL	.
16g/	.	.
.	32bn\K	.
!	!	!LO:HP:a
16e/	16.dd\	<
16g/JJ	.	.
.	32cc\JJk	.
*rep	*	*
16c/LL	16.ee\LL	.
16g/	.	.
.	32dd\K	.
16e/	16.ff\	.
16g/JJ	.	.
.	32ee\JJk	.
*Xrep	*	*
*rep	*	*
16c/LL	16.gg\LL	.
16g/	.	.
.	32ff#X\K	.
16e/	16.aa\	[
16g/JJ	.	.
.	32gg\JJk	.
*Xrep	*	*
=15	=15	=15
16c/LL	8gg\	.
16g/	.	.
!	!	!LO:HP:b=2
.	16qqff#X/	>
16e/	4gg\	.
16g/JJ	.	.
*rep	*	*
16c/LL	.	.
16g/	.	.
16e/	16ee\LL	.
16g/JJ	16cc\JJ	.
*Xrep	*	*
16d/LL	16bn\LL	.
16g/	16ffn\	]
16f/	16dd\	.
16g/JJ	16b\JJ	.
!!LO:LB:g=original
=16	=16	=16
16c/LL	(>32cc\LLL	.
.	32dd\	.
16g/	32cc\	.
.	32bn\J)	.
16e/	16cc\	.
16g/JJ	16dd\JJ	.
*rep	*	*
16c/LL	(>32ee\LLL	.
.	32ff\	.
16g/	32ee\	.
.	32dd#X\J)	.
16e/	16ee\	.
16g/JJ	16ff\JJ	.
*Xrep	*	*
*rep	*	*
16c/LL	16ff#X\LL	.
16g/	16aa\J	.
16e/	8gg\J	.
16g/JJ	.	.
*Xrep	*	*
=17	=17	=17
.	16qqaa/	.
8cL 8B- 8G/	8bb-\	.
8e/J	4bb-^>\	.
*rep	*	*
8cL 8B- 8G/	.	.
8e/J	16gg\LL	.
.	(>16ff\JJ	.
*Xrep	*	*
*rep	*	*
8cL 8B- 8G/	16ee\LL	.
.	16cc\)	.
8e/J	16dd\	.
.	16ee\JJ	.
*Xrep	*	*
=18	=18	=18
8cL 8A/	8.ff\L	.
8f/J	.	.
.	32qqgg/LLL	.
.	32qqff/	.
.	32qqee/	.
.	32qqff/JJJ	.
.	16gg\Jk	.
*rep	*	*
8cL 8A/	8.aa\L	.
8f/J	.	.
.	32qqbb-/LLL	.
.	32qqaa/	.
.	32qqgg/	.
.	32qqaa/JJJ	.
.	16bb-\Jk	.
*Xrep	*	*
*rep	*	*
8cL 8A/	16ddd\LL	.
!	!LO:N:vis=16	!
.	32ree	.
.	32ccc\K	.
8f/J	16.aa\	.
.	32ff\JJk	.
*Xrep	*	*
=19	=19	=19
8dL 8B-/	8ddss\	.
8g/J	4ddd^>\	.
*rep	*	*
8dL 8B-/	.	.
8g/J	16ccc\LL	.
.	16bb-\JJ	.
*Xrep	*	*
*rep	*	*
8dL 8B-/	16.aa\LL	.
.	32gg\K	.
8g/J	16.bb-\	.
.	32gg\JJk	.
*Xrep	*	*
=20	=20	=20
*^	*	*
.	.	16qqee/	.
8r	4.c\	8.ff\L	.
8aL 8f/	.	.	.
.	.	32gg\LL	.
!	!	!	!LO:HP:a
.	.	32ff\JJJ	>
8b-J 8g/	.	16ee\LL	.
.	.	16cc\	.
8r	8ryy	(>16dd\	.
.	.	16ee\JJ	.
4r	4ryy	16ff\LL	.
.	.	16gg\)	]
.	.	16aa\	.
.	.	16ccc\JJ	.
!LO:TX:a:t=[segno]	!	!LO:TX:a:t=[segno]	!
!	!	!LO:TX:a:Bi:t=Dal \nSeg.	!
!!LO:PB:g=original
*v	*v	*	*
=21||	=21||	=21||
*^	*	*
*>D	*	*>D	*
*k[b-e-]	*	*k[b-e-]	*
*B-:	*	*B-:	*
!	!	!LO:SIC:o=Trio.:v:t='Trio.' znajduje się po lewej stronie systemu	!
!LO:TX:a:t=P:problem=w źródle klucz F4 przed kluczem G2 w patrii lewej ręki	!	!LO:TX:b:t=P:problem=w źródle 'p' ma dwie linijki podkreślenia	!
8r	2.B-\	8b-ss\L	p
8f 8d/	.	(>16cc\L	.
.	.	16dd\JJ	.
*tremolo	*	*	*
8f 8d/L	.	16ee-\LL	.
.	.	16ff\	.
8f 8d/	.	16gg\	.
.	.	16aa\JJ	.
8f 8d/	.	16bb-\LL	.
.	.	16ccc\	.
8f 8d/J	.	16ddd\)	.
.	.	16eee-\JJ	.
*Xtremolo	*	*	*
=22	=22	=22	=22
8r	2.B-\	32fff^>\KLL	.
.	.	32ree	.
.	.	(>16fff\	.
8f 8d/	.	16bbb-\	.
.	.	16fff\JJ)	.
*tremolo	*	*	*
8f 8d/L	.	32ddd^>\KLL	.
.	.	32ree	.
.	.	(>16ddd\	.
8f 8d/	.	16fff\	.
.	.	16ddd\JJ)	.
8f 8d/	.	32bb-^>\KLL	.
.	.	32ree	.
.	.	(>16bb-\	.
8f 8d/J	.	16ddd\	.
.	.	16bb-\JJ)	.
*Xtremolo	*	*	*
=23	=23	=23	=23
8r	2.B-\	32ccc^>\KLL	.
.	.	32ree	.
.	.	(>16ccc\	.
8f 8e- 8c/	.	16eee-\	.
.	.	16ccc\JJ)	.
*tremolo	*	*	*
8f 8e- 8c/L	.	32aa^>\KLL	.
.	.	32ree	.
.	.	(>16aa\	.
8f 8e- 8c/	.	16ccc\	.
.	.	16aa\JJ)	.
8f 8e- 8c/	.	32ff^>\KLL	.
.	.	32ree	.
.	.	(>16ff\	.
8f 8e- 8c/J	.	16aa\	.
.	.	16ff\JJ)	.
*Xtremolo	*	*	*
=24	=24	=24	=24
8r	2.B-\	32bb-^>\KLL	.
.	.	32ree	.
.	.	(>16bb-\	.
8f 8d/	.	16ddd\	.
.	.	16bb-\JJ)	.
*tremolo	*	*	*
8f 8d/L	.	32ff^>\KLL	.
.	.	32ree	.
.	.	(>16ff\	.
8f 8d/	.	16bb-\	.
.	.	16ff\JJ)	.
8f 8d/	.	32dd^>\KLL	.
.	.	32ree	.
.	.	(>16dd\	.
8f 8d/J	.	16ff\	.
.	.	16dd\JJ)	.
*Xtremolo	*	*	*
!!LO:LB:g=original
*v	*v	*	*
=25	=25	=25
(<8dL 8B-/	8b-\L	.
8f/J)	(>16cc\L	.
.	16dd\JJ	.
*rep	*	*
(<8dL 8B-/	16ee-\LL	.
.	16ff\	.
8f/J)	16gg\	.
.	16aa\JJ	.
*Xrep	*	*
*rep	*	*
(<8dL 8B-/	16bb-\LL	.
.	16ccc\	.
8f/J)	16ddd\)	.
.	16eee-\JJ	.
*Xrep	*	*
=26	=26	=26
8dL 8B-/	16.eeen\LL	.
.	(>32fff\K	.
8f/J	16.ggg\	.
.	32fff\JJk)	.
*rep	*	*
8dL 8B-/	(>16.ccc#X\LL	.
.	32ddd\K	.
8f/J	16fff\	.
.	16ddd\JJ)	.
*Xrep	*	*
*rep	*	*
8dL 8B-/	(>16.aa\LL	.
.	32bb-\K	.
8f/J	16ddd\)	.
.	16bb-\JJ	.
*Xrep	*	*
=27	=27	=27
8e-L 8c/	(>16.bbn\LL	.
.	32ccc\K	.
8f/J	16eee-X'>\)	.
.	16ccc\JJ	.
*rep	*	*
8e-L 8c/	16.gg#X\LL	.
.	(>32aa\K	.
8f/J	16ccc\	.
.	16aa\JJ)	.
*Xrep	*	*
*rep	*	*
8e-L 8c/	(>16.een\LL	.
.	32ff\K	.
8f/J	16aa\	.
.	16ff\JJ)	.
*Xrep	*	*
=28	=28	=28
8fL 8d 8B-/	16bb-\LL	f
.	16ff\	.
8fJ 8e- 8c 8B-/	16ccc\	.
.	16aa\JJ	.
*rep	*	*
8fL 8d 8B-/	16bb-\LL	.
.	16ff\	.
8fJ 8e- 8c 8B-/	16ccc\	.
.	16aa\JJ	.
*Xrep	*	*
4d 4B-/	4bb-\	.
=29:|!|:	=29:|!|:	=29:|!|:
*>E	*>E	*
*clefF4	*	*
.	8qqeen/	p
(>8F\L	8ff\	.
.	16qqee/	.
!LO:S:s=3:note:problem=note-level slur	!	!
8f>J 8c> 8A\)	4ff^>\	.
*rep	*	*
(>8F\L	.	.
!LO:S:s=3:note:problem=note-level slur	!	!
8f>J 8c> 8A\)	(>16eeny\LL	.
.	16ff\JJ	.
*Xrep	*	*
*rep	*	*
(>8F\L	16gg\LL	.
.	16ff\	.
!LO:S:s=3:note:problem=note-level slur	!	!
8f>J 8c> 8A\)	16een\)	.
.	16ff\JJ	.
*Xrep	*	*
!!LO:LB:g=original
=30	=30	=30
(>8F\L	(>8aa\L	.
!LO:S:s=2:note:problem=note-level slur	!	!
8en>J 8d-X) 8B-\	8aa-X\J)	.
*rep	*	*
(>8F\L	8gg\L	.
!LO:S:s=2:note:problem=note-level slur	!	!
8e>J 8d-) 8B-\	(>16ff#X\L	.
.	16gg\JJ	.
*Xrep	*	*
*rep	*	*
(>8F\L	16aan\LL	.
.	16gg\	.
!LO:S:s=2:note:problem=note-level slur	!	!
8e>J 8d-) 8B-\	16ff#\)	.
.	16gg\JJ	.
*Xrep	*	*
=31	=31	=31
(>8E-X\L	8bb-\L	.
!LO:TX:a:t=P:problem=cross-staff slur	!	!
!LO:S:s=2:note:problem=note-level slur	!	!
8f>J 8c>\)	8aa\J	.
*rep	*	*
(>8E-\L	8r	.
!	!LO:TX:a:t=t:problem='t' dopisane ołówkiem	!
!LO:TX:a:t=P:problem=cross-staff slur	!	!
!LO:S:s=2:note:problem=note-level slur	!	!
8f>J 8c>\)	4aa\	.
*Xrep	*	*
*rep	*	*
(>8E-\L	.	.
!LO:TX:a:t=P:problem=cross-staff slur	!	!
!LO:S:s=2:note:problem=note-level slur	!	!
8f>J 8c>\)	16gg#X\LL	.
.	16aa\JJ	.
*Xrep	*	*
=32	=32	=32
(>8D-X\L	(>8ccc\L	.
!LO:S:s=2:note:problem=note-level slur	!	!
8f>J 8B-\)	8ccc-X\J	.
*rep	*	*
(>8D-\L	8bb-\L)	.
!LO:S:s=2:note:problem=note-level slur	!	!
8f>J 8B-\)	16aa\L	.
.	(>16bb-\JJ	.
*Xrep	*	*
*rep	*	*
(>8D-\L	16cccn\LL	.
.	16bb-\)	.
!LO:S:s=2:note:problem=note-level slur	!	!
8f>J 8B-\)	16aa\	.
.	16bb-\JJ	.
*Xrep	*	*
=33	=33	=33
(>8AA\L	8ddd-X\L	.
8cJ 8F\)	8ccc\J	.
*rep	*	*
(>8AA\L	8r	.
!	!LO:TX:a:t=t:problem='t' dopisane ołówkiem	!
.	16qqddd-X/	.
8cJ 8F\)	4ccc\	.
*Xrep	*	*
*rep	*	*
(>8AA\L	.	.
8cJ 8F\)	16bbn\LL	.
.	16ccc\JJ	.
*Xrep	*	*
=34	=34	=34
(>8BB-\L	(>8.eee-\L	.
8d-XJ 8F\)	.	.
.	16dddn\Jk	.
*rep	*	*
(>8BB-\L	8ddd-X\L)	.
8d-J 8F\)	(>16ccc\L	.
.	16ddd-\JJ	.
*Xrep	*	*
!LO:TX:a:t=P:problem=mixed beam	!	!
8AA-X/L	16eee-\LL	.
.	16ddd-\	.
8cJ 8F\	16ccc\)	.
.	16ddd-\JJ	.
=35	=35	=35
(>8GG-X\L	16.ccc\LL	.
.	32ccc-X\JK	.
8B-J 8En\)	[>8bb-\J	.
*rep	*	*
(>8GG-\L	16.bb-\LL]	.
.	32cccn\K	.
8B-J 8E\)	16.ddd-X\	.
.	32ccc\JJk	.
*Xrep	*	*
*rep	*	*
(>8GG-\L	16.eee-\LL	.
.	32ddd-\K	.
8B-J 8E\)	16.ccc\	.
.	32bb-\JJk	.
*Xrep	*	*
!!LO:LB:g=original
=36	=36	=36
!LO:TX:a:t=P:problem=mixed beam	!	!
8FF/L	16.aa\LL	.
.	32ff\JJk	.
*tremolo	*	*
16A 16F\L	4fff^>\	.
16A 16F\JJ	.	.
*Xremolo	*	*
*rep	*	*
!LO:TX:a:t=P:problem=mixed beam	!	!
8FF/L	.	.
*tremolo	*	*
16A 16F\L	16ccc\LL	.
16A 16F\JJ	16eee-\JJ	.
*Xtremolo	*	*
*Xrep	*	*
.	32qqddd-X/LLL	.
!	!LO:SIC:s=32eee-:v	!
.	32qqddd-/JJJ	.
!LO:TX:a:t=P:problem=mixed beam	!	!
8GG-X/L	16ddd-X\LL	.
.	16ccc\	.
*tremolo	*	*
16B- 16En\L	16ddd-\	.
16B- 16En\JJ	16bb-\JJ	.
*Xtremolo	*	*
=37	=37	=37
!LO:TX:a:t=P:problem=mixed beam	!	!
8FF/L	16.aa\LL	.
.	32ff\JJk	.
*tremolo	*	*
16A 16F\L	4fff 4ff^>\	.
16A 16F\JJ	.	.
*Xtremolo	*	*
*rep	*	*
!LO:TX:a:t=P:problem=mixed beam	!	!
8FF/L	.	.
*tremolo	*	*
16A 16F\L	16ccc\LL	.
16A 16F\JJ	16eee-\JJ	.
*Xtremolo	*	*
*Xrep	*	*
.	32qqddd-X/LLL	.
.	32qqeee-/JJJ	.
!LO:TX:a:t=P:problem=mixed beam	!	!
8GG-X/L	16ddd-X\LL	.
.	16ccc\	.
8B-J 8En\	16ddd-\	.
.	16bb-\JJ	.
=38	=38	=38
*tremolo	*	*
8A 8FF/L	8.aa\L	.
8A 8FF/J	.	.
.	32qqbb-/LLL	.
.	32qqaa/	.
.	32qqgg#X/	.
.	32qqaa/JJJ	.
.	16bb-\Jk	.
8A 8FF/L	8.cccSS\L	.
8A 8FF/	.	.
.	16ddd-X\Jk	.
8A 8FF/J	8.eee-SS\L	.
*Xtremolo	*	*
8r	.	.
.	16fff\Jk	.
=39	=39	=39
*tremolo	*	*
8A 8FF/L	[>4ggg-X\	.
8A 8FF/J	.	.
8A 8FF/L	8ggg-\L]	.
8A 8FF/	16fff\L	.
.	(>16eee-\JJ	.
8A 8FF/	16ddd-X\LL	.
.	16ccc\	.
8A 8FF/J	16bb-\	.
.	16aa\JJ)	.
*Xtremolo	*	*
=40	=40	=40
2.r	16gg\LL	.
.	16ff\	.
.	16een\	.
.	16ff\JJ	.
.	16ee\LL	.
.	16ff\	.
.	16ee\	.
.	16ff\JJ	.
.	16.aa\LL	.
.	32gg\K	.
.	16ee-X\	.
.	16cc\JJ	.
!	!LO:TX:b:Bi:t=Trio. Da Capo.	!
==	==	==
*-	*-	*-
!!!system-decoration: {(s1,s2)}
!!!RDF**kern: > = above
!!!RDF**kern: < = below
!!!EED: Wojciech Jakubiak-Danek
!!!EEV: 2020-11-20
!!!ENC: Andrzej Borzym
!!!END: 2020-06-08
!!!YEC: Copyright 2022 Narodowy Instytut Fryderyka Chopina (https://polishscores.org)
!!!YEM: Licence CC BY 4.0 (https://creativecommons.org/licenses/by/4.0)
